assets/amenitiesIcons/Kindle.svg

<?xml version="1.0" encoding="utf-8"?>

<!DOCTYPE svg PUBLIC "-//W3C//DTD SVG 1.1//EN" "http://www.w3.org/Graphics/SVG/1.1/DTD/svg11.dtd">
<!-- Uploaded to: SVG Repo, www.svgrepo.com, Generator: SVG Repo Mixer Tools -->
<svg version="1.1" id="Layer_1" xmlns="http://www.w3.org/2000/svg" xmlns:xlink="http://www.w3.org/1999/xlink" 
	 width="800px" height="800px" viewBox="0 0 25 32" enable-background="new 0 0 25 32" xml:space="preserve">
<g>
	<path fill="#828282" d="M1.5,32h22c0.827,0,1.5-0.673,1.5-1.5v-29C25,0.673,24.327,0,23.5,0h-22C0.673,0,0,0.673,0,1.5v29
		C0,31.327,0.673,32,1.5,32z M1,1.5C1,1.224,1.224,1,1.5,1h22C23.776,1,24,1.224,24,1.5v29c0,0.276-0.224,0.5-0.5,0.5h-22
		C1.224,31,1,30.776,1,30.5V1.5z"/>
	<path fill="#828282" d="M3.5,27h18c0.276,0,0.5-0.224,0.5-0.5v-23C22,3.224,21.776,3,21.5,3h-18C3.224,3,3,3.224,3,3.5v23
		C3,26.776,3.224,27,3.5,27z M4,4h17v22H4V4z"/>
	<circle fill="#828282" cx="13" cy="29" r="1"/>
</g>
</svg>

<svg xmlns="http://www.w3.org/2000/svg" xml:space="preserve" width="800" height="800" viewBox="0 0 25 32"><g fill="#828282"><path d="M1.5 32h22c.827 0 1.5-.673 1.5-1.5v-29c0-.827-.673-1.5-1.5-1.5h-22C.673 0 0 .673 0 1.5v29c0 .827.673 1.5 1.5 1.5M1 1.5a.5.5 0 0 1 .5-.5h22a.5.5 0 0 1 .5.5v29a.5.5 0 0 1-.5.5h-22a.5.5 0 0 1-.5-.5z"/><path d="M3.5 27h18a.5.5 0 0 0 .5-.5v-23a.5.5 0 0 0-.5-.5h-18a.5.5 0 0 0-.5.5v23a.5.5 0 0 0 .5.5M4 4h17v22H4z"/><circle cx="13" cy="29" r="1"/></g></svg>
